;FLAVOR:Marlin
;TIME:3912
;Filament used: 1.31995m
;Layer height: 0.1
;MINX:90.8
;MINY:91.4
;MINZ:0.3
;MAXX:133.199
;MAXY:132.6
;MAXZ:9
;Generated with Cura_SteamEngine 4.2.1
M104 S200
M105
M109 S200
M82 ;absolute extrusion mode
G21 ;metric values
G90 ;absolute positioning
M82 ;set extruder to absolute mode
M107 ;start with the fan off
G28 X0 Y0 ;move X/Y to min endstops
G28 Z0 ;move Z to min endstops
G1 Z15.0 F120 ;move the platform down 15mm
G92 E0 ;zero the extruded length
G1 F200 E3 ;extrude 3mm of feed stock
G92 E0 ;zero the extruded length again
G1 F120
M117 Printing...
G5
M141 S26
G92 E0
G92 E0
G1 F1800 E-10
;LAYER_COUNT:88
;LAYER:0
M106 S255
G0 F600 X92.792 Y92.694 Z0.3
;TYPE:SKIRT
G1 F1800 E0
G1 F600 X92.944 Y92.542 E0.01394
G1 X93.366 Y92.177 E0.05013
G1 X93.836 Y91.875 E0.08636
G1 X94.344 Y91.644 E0.12256
G1 X94.88 Y91.488 E0.15876
G1 X95.702 Y91.4 E0.21238
G1 X128.298 Y91.4 E2.32647
G1 X128.855 Y91.44 E2.36269
G1 X129.4 Y91.559 E2.39887
G1 X129.923 Y91.755 E2.43509
G1 X130.412 Y92.023 E2.47126
G1 X131.056 Y92.542 E2.5249
G1 X131.208 Y92.694 E2.53884
G1 X131.573 Y93.116 E2.57503
G1 X131.875 Y93.586 E2.61126
G1 X132.106 Y94.094 E2.64746
G1 X132.262 Y94.63 E2.68366
G1 X132.35 Y95.452 E2.73728
G1 X132.35 Y98.233 E2.91765
G1 X132.422 Y98.316 E2.92477
G1 X132.724 Y98.786 E2.96101
G1 X132.955 Y99.294 E2.9972
G1 X133.111 Y99.83 E3.03341
G1 X133.199 Y100.652 E3.08702
G1 X133.199 Y123.348 E4.55902
G1 X133.159 Y123.905 E4.59524
G1 X133.04 Y124.45 E4.63142
G1 X132.844 Y124.973 E4.66765
G1 X132.576 Y125.462 E4.70381
G1 X132.35 Y125.742 E4.72715
G1 X132.35 Y128.548 E4.90914
G1 X132.31 Y129.105 E4.94536
G1 X132.191 Y129.65 E4.98154
G1 X131.995 Y130.173 E5.01776
G1 X131.727 Y130.662 E5.05393
G1 X131.208 Y131.306 E5.10757
G1 X131.056 Y131.458 E5.12151
G1 X130.634 Y131.823 E5.1577
G1 X130.164 Y132.125 E5.19393
G1 X129.656 Y132.356 E5.23013
G1 X129.12 Y132.512 E5.26633
G1 X128.298 Y132.6 E5.31995
G1 X95.702 Y132.6 E7.43404
G1 X95.145 Y132.56 E7.47026
G1 X94.6 Y132.441 E7.50644
G1 X94.077 Y132.245 E7.54266
G1 X93.588 Y131.977 E7.57883
G1 X92.944 Y131.458 E7.63247
G1 X92.792 Y131.306 E7.64641
G1 X92.427 Y130.884 E7.6826
G1 X92.125 Y130.414 E7.71883
G1 X91.894 Y129.906 E7.75503
G1 X91.738 Y129.37 E7.79123
G1 X91.65 Y128.548 E7.84485
G1 X91.65 Y125.767 E8.02522
G1 X91.578 Y125.684 E8.03234
G1 X91.276 Y125.214 E8.06858
G1 X91.045 Y124.706 E8.10477
G1 X90.889 Y124.17 E8.14098
G1 X90.801 Y123.349 E8.19453
G1 X90.8 Y120.051 E8.40843
G1 X90.8 Y120.05 E8.40849
G1 X90.801 Y100.652 E9.6666
G1 X90.841 Y100.095 E9.70281
G1 X90.96 Y99.55 E9.73899
G1 X91.156 Y99.027 E9.77522
G1 X91.424 Y98.537 E9.81144
G1 X91.65 Y98.257 E9.83478
G1 X91.65 Y95.452 E10.0167
G1 X91.69 Y94.895 E10.05292
G1 X91.809 Y94.35 E10.0891
G1 X92.005 Y93.827 E10.12533
G1 X92.273 Y93.338 E10.16149
G1 X92.792 Y92.694 E10.21513
G0 X93.16 Y93.062
G1 X93.312 Y92.91 E10.22908
G1 X93.707 Y92.572 E10.26279
G1 X94.148 Y92.298 E10.29647
G1 X94.627 Y92.096 E10.33018
G1 X95.131 Y91.969 E10.36389
G1 X95.702 Y91.92 E10.40106
G1 X128.298 Y91.92 E12.51515
G1 X128.816 Y91.96 E12.54885
G1 X129.322 Y92.079 E12.58256
G1 X129.804 Y92.274 E12.61628
G1 X130.25 Y92.54 E12.64996
G1 X130.688 Y92.91 E12.68715
G1 X130.84 Y93.062 E12.70109
G1 X131.178 Y93.457 E12.73481
G1 X131.452 Y93.898 E12.76848
G1 X131.654 Y94.377 E12.8022
G1 X131.781 Y94.881 E12.83591
G1 X131.83 Y95.452 E12.87308
G1 X131.83 Y98.427 E13.06603
G1 X132.027 Y98.657 E13.08567
G1 X132.301 Y99.098 E13.11934
G1 X132.503 Y99.577 E13.15306
G1 X132.63 Y100.081 E13.18677
G1 X132.679 Y100.652 E13.22394
G1 X132.679 Y123.348 E14.69594
G1 X132.639 Y123.866 E14.72963
G1 X132.52 Y124.372 E14.76335
G1 X132.325 Y124.854 E14.79707
G1 X132.059 Y125.3 E14.83075
G1 X131.83 Y125.571 E14.85376
G1 X131.83 Y128.548 E15.04684
G1 X131.79 Y129.066 E15.08054
G1 X131.671 Y129.572 E15.11425
G1 X131.476 Y130.054 E15.14797
G1 X131.21 Y130.5 E15.18165
G1 X130.84 Y130.938 E15.21884
G1 X130.688 Y131.09 E15.23278
G1 X130.293 Y131.428 E15.2665
G1 X129.852 Y131.702 E15.30017
G1 X129.373 Y131.904 E15.33389
G1 X128.869 Y132.031 E15.3676
G1 X128.298 Y132.08 E15.40477
G1 X95.702 Y132.08 E17.51886
G1 X95.184 Y132.04 E17.55255
G1 X94.678 Y131.921 E17.58626
G1 X94.196 Y131.726 E17.61999
G1 X93.75 Y131.46 E17.65367
G1 X93.312 Y131.09 E17.69085
G1 X93.16 Y130.938 E17.7048
G1 X92.822 Y130.543 E17.73851
G1 X92.548 Y130.102 E17.77219
G1 X92.346 Y129.623 E17.8059
G1 X92.219 Y129.119 E17.83961
G1 X92.17 Y128.548 E17.87678
G1 X92.17 Y125.573 E18.06973
G1 X91.973 Y125.343 E18.08937
G1 X91.699 Y124.902 E18.12305
G1 X91.497 Y124.423 E18.15676
G1 X91.37 Y123.919 E18.19047
G1 X91.321 Y123.349 E18.22758
G1 X91.32 Y120.051 E18.44148
G1 X91.32 Y120.05 E18.44154
G1 X91.321 Y100.652 E19.69964
G1 X91.361 Y100.134 E19.73334
G1 X91.48 Y99.628 E19.76705
G1 X91.675 Y99.146 E19.80078
G1 X91.941 Y98.7 E19.83446
G1 X92.17 Y98.429 E19.85747
G1 X92.17 Y95.452 E20.05055
G1 X92.21 Y94.934 E20.08424
G1 X92.329 Y94.428 E20.11796
G1 X92.524 Y93.946 E20.15168
G1 X92.79 Y93.5 E20.18536
G1 X93.16 Y93.062 E20.22255
G0 X93.528 Y93.43
G1 X93.68 Y93.278 E20.23649
G1 X94.045 Y92.969 E20.2675
G1 X94.456 Y92.726 E20.29847
G1 X94.902 Y92.554 E20.32947
G1 X95.37 Y92.459 E20.36045
G1 X95.702 Y92.44 E20.38201
G1 X128.298 Y92.44 E22.4961
G1 X128.774 Y92.48 E22.52708
G1 X129.237 Y92.599 E22.55809
G1 X129.674 Y92.793 E22.5891
G1 X130.072 Y93.057 E22.62007
G1 X130.32 Y93.278 E22.64162
G1 X130.472 Y93.43 E22.65556
G1 X130.781 Y93.795 E22.68658
G1 X131.024 Y94.206 E22.71754
G1 X131.196 Y94.652 E22.74855
G1 X131.291 Y95.12 E22.77952
G1 X131.31 Y95.452 E22.80109
G1 X131.31 Y98.619 E23.00649
G1 X131.321 Y98.63 E23.0075
G1 X131.63 Y98.995 E23.03851
G1 X131.873 Y99.406 E23.06948
G1 X132.045 Y99.852 E23.10048
G1 X132.14 Y100.32 E23.13146
G1 X132.159 Y100.652 E23.15302
G1 X132.159 Y123.348 E24.62502
G1 X132.119 Y123.824 E24.65601
G1 X132 Y124.287 E24.68701
G1 X131.806 Y124.724 E24.71802
G1 X131.542 Y125.122 E24.749
G1 X131.321 Y125.37 E24.77054
G1 X131.31 Y125.381 E24.77155
G1 X131.31 Y128.548 E24.97695
G1 X131.27 Y129.024 E25.00793
G1 X131.151 Y129.487 E25.03894
G1 X130.957 Y129.924 E25.06995
G1 X130.693 Y130.322 E25.10092
G1 X130.472 Y130.57 E25.12247
G1 X130.32 Y130.722 E25.13641
G1 X129.955 Y131.031 E25.16743
G1 X129.544 Y131.274 E25.19839
G1 X129.098 Y131.446 E25.2294
G1 X128.63 Y131.541 E25.26037
G1 X128.298 Y131.56 E25.28194
G1 X95.702 Y131.56 E27.39602
G1 X95.226 Y131.52 E27.42701
G1 X94.763 Y131.401 E27.45801
G1 X94.326 Y131.207 E27.48902
G1 X93.928 Y130.943 E27.52
G1 X93.68 Y130.722 E27.54154
G1 X93.528 Y130.57 E27.55548
G1 X93.219 Y130.205 E27.5865
G1 X92.976 Y129.794 E27.61747
G1 X92.804 Y129.348 E27.64847
G1 X92.709 Y128.88 E27.67944
G1 X92.69 Y128.548 E27.70101
G1 X92.69 Y125.381 E27.90641
G1 X92.679 Y125.37 E27.90742
G1 X92.37 Y125.005 E27.93844
G1 X92.127 Y124.594 E27.9694
G1 X91.955 Y124.148 E28.00041
G1 X91.86 Y123.68 E28.03138
G1 X91.841 Y123.349 E28.05288
G1 X91.84 Y120.051 E28.26678
G1 X91.84 Y120.05 E28.26685
G1 X91.841 Y100.652 E29.52495
G1 X91.881 Y100.176 E29.55593
G1 X92 Y99.713 E29.58693
G1 X92.194 Y99.276 E29.61794
G1 X92.458 Y98.878 E29.64892
G1 X92.679 Y98.63 E29.67046
G1 X92.69 Y98.619 E29.67147
G1 X92.69 Y95.452 E29.87688
G1 X92.73 Y94.976 E29.90786
G1 X92.849 Y94.513 E29.93886
G1 X93.043 Y94.076 E29.96987
G1 X93.307 Y93.678 E30.00085
G1 X93.528 Y93.43 E30.02239
G0 X93.895 Y93.797
G1 X94.047 Y93.645 E30.03633
G1 X94.38 Y93.369 E30.06438
G1 X94.758 Y93.159 E30.09243
G1 X95.167 Y93.022 E30.12041
G1 X95.702 Y92.96 E30.15534
G1 X128.298 Y92.96 E32.26942
G1 X128.728 Y93 E32.29743
G1 X129.144 Y93.118 E32.32548
G1 X129.531 Y93.311 E32.35353
G1 X129.953 Y93.645 E32.38843
G1 X130.105 Y93.797 E32.40237
G1 X130.381 Y94.13 E32.43042
G1 X130.591 Y94.508 E32.45847
G1 X130.728 Y94.917 E32.48644
G1 X130.79 Y95.452 E32.52137
G1 X130.79 Y98.836 E32.74085
G1 X130.802 Y98.845 E32.74182
G1 X130.954 Y98.997 E32.75577
G1 X131.23 Y99.33 E32.78382
G1 X131.44 Y99.708 E32.81186
G1 X131.577 Y100.117 E32.83984
G1 X131.639 Y100.652 E32.87477
G1 X131.639 Y123.348 E34.34677
G1 X131.599 Y123.778 E34.37478
G1 X131.481 Y124.194 E34.40282
G1 X131.288 Y124.581 E34.43087
G1 X130.954 Y125.003 E34.46578
G1 X130.802 Y125.155 E34.47972
G1 X130.79 Y125.165 E34.48073
G1 X130.79 Y128.548 E34.70014
G1 X130.75 Y128.978 E34.72815
G1 X130.632 Y129.394 E34.7562
G1 X130.439 Y129.781 E34.78425
G1 X130.105 Y130.203 E34.81915
G1 X129.953 Y130.355 E34.83309
G1 X129.62 Y130.631 E34.86114
G1 X129.242 Y130.841 E34.88919
G1 X128.833 Y130.978 E34.91716
G1 X128.298 Y131.04 E34.9521
G1 X95.702 Y131.04 E37.06618
G1 X95.272 Y131 E37.09419
G1 X94.856 Y130.882 E37.12224
G1 X94.469 Y130.689 E37.15028
G1 X94.047 Y130.355 E37.18519
G1 X93.895 Y130.203 E37.19913
G1 X93.619 Y129.87 E37.22718
G1 X93.409 Y129.492 E37.25523
G1 X93.272 Y129.083 E37.2832
G1 X93.21 Y128.548 E37.31813
G1 X93.21 Y125.164 E37.53761
G1 X93.198 Y125.155 E37.53858
G1 X93.046 Y125.003 E37.55253
G1 X92.77 Y124.67 E37.58058
G1 X92.56 Y124.292 E37.60862
G1 X92.423 Y123.883 E37.6366
G1 X92.361 Y123.349 E37.67146
G1 X92.36 Y120.051 E37.88536
G1 X92.361 Y100.653 E39.14346
G1 X92.401 Y100.222 E39.17154
G1 X92.519 Y99.807 E39.19952
G1 X92.712 Y99.42 E39.22757
G1 X93.046 Y98.997 E39.26252
G1 X93.198 Y98.845 E39.27647
G1 X93.21 Y98.835 E39.27748
G1 X93.21 Y95.452 E39.49689
G1 X93.25 Y95.022 E39.5249
G1 X93.368 Y94.606 E39.55295
G1 X93.561 Y94.219 E39.58099
G1 X93.895 Y93.797 E39.6159
G0 X94.263 Y94.165
G1 X94.415 Y94.013 E39.62984
G1 X94.711 Y93.773 E39.65456
G1 X95.051 Y93.6 E39.6793
G1 X95.419 Y93.502 E39.704
G1 X95.702 Y93.48 E39.72241
G1 X128.298 Y93.48 E41.83649
G1 X128.677 Y93.52 E41.86121
G1 X129.039 Y93.638 E41.88591
G1 X129.369 Y93.829 E41.91064
G1 X129.585 Y94.013 E41.92904
G1 X129.737 Y94.165 E41.94298
G1 X129.977 Y94.461 E41.9677
G1 X130.15 Y94.801 E41.99244
G1 X130.248 Y95.169 E42.01714
G1 X130.27 Y95.452 E42.03555
G1 X130.27 Y99.073 E42.27039
G1 X130.434 Y99.213 E42.28438
G1 X130.586 Y99.365 E42.29832
G1 X130.826 Y99.661 E42.32304
G1 X130.999 Y100.001 E42.34778
G1 X131.097 Y100.369 E42.37248
G1 X131.119 Y100.652 E42.39089
G1 X131.119 Y123.348 E43.86289
G1 X131.079 Y123.727 E43.88761
G1 X130.961 Y124.089 E43.9123
G1 X130.77 Y124.419 E43.93703
G1 X130.586 Y124.635 E43.95543
G1 X130.434 Y124.787 E43.96937
G1 X130.27 Y124.92 E43.98307
G1 X130.27 Y128.548 E44.21837
G1 X130.23 Y128.927 E44.24309
G1 X130.112 Y129.289 E44.26778
G1 X129.921 Y129.619 E44.29251
G1 X129.737 Y129.835 E44.31092
G1 X129.585 Y129.987 E44.32486
G1 X129.289 Y130.227 E44.34957
G1 X128.949 Y130.4 E44.37431
G1 X128.581 Y130.498 E44.39901
G1 X128.298 Y130.52 E44.41742
G1 X95.702 Y130.52 E46.53151
G1 X95.323 Y130.48 E46.55623
G1 X94.961 Y130.362 E46.58092
G1 X94.631 Y130.171 E46.60565
G1 X94.415 Y129.987 E46.62405
G1 X94.263 Y129.835 E46.638
G1 X94.023 Y129.539 E46.66271
G1 X93.85 Y129.199 E46.68745
G1 X93.752 Y128.831 E46.71215
G1 X93.73 Y128.548 E46.73056
G1 X93.73 Y124.927 E46.96541
G1 X93.566 Y124.787 E46.9794
G1 X93.414 Y124.635 E46.99334
G1 X93.174 Y124.339 E47.01805
G1 X93.001 Y123.999 E47.0428
G1 X92.903 Y123.631 E47.06749
G1 X92.881 Y123.349 E47.08584
G1 X92.88 Y120.051 E47.29974
G1 X92.881 Y100.653 E48.55784
G1 X92.921 Y100.274 E48.58256
G1 X93.039 Y99.911 E48.60731
G1 X93.229 Y99.581 E48.63201
G1 X93.414 Y99.365 E48.65046
G1 X93.566 Y99.213 E48.6644
G1 X93.73 Y99.08 E48.67809
G1 X93.73 Y95.452 E48.91339
G1 X93.77 Y95.073 E48.93811
G1 X93.888 Y94.711 E48.96281
G1 X94.079 Y94.381 E48.98754
G1 X94.263 Y94.165 E49.00594
G0 X94.631 Y94.533
G1 X94.783 Y94.381 E49.01988
G1 X95.037 Y94.183 E49.04077
G1 X95.332 Y94.054 E49.06165
G1 X95.702 Y94 E49.0859
G1 X128.298 Y94 E51.19999
G1 X128.617 Y94.04 E51.22084
G1 X128.917 Y94.157 E51.24172
G1 X129.217 Y94.381 E51.26601
G1 X129.369 Y94.533 E51.27995
G1 X129.567 Y94.787 E51.30084
G1 X129.696 Y95.082 E51.32172
G1 X129.75 Y95.452 E51.34597
G1 X129.75 Y99.351 E51.59885
G1 X129.766 Y99.357 E51.59996
G1 X130.066 Y99.581 E51.62424
G1 X130.218 Y99.733 E51.63818
G1 X130.416 Y99.987 E51.65907
G1 X130.545 Y100.282 E51.67995
G1 X130.599 Y100.652 E51.7042
G1 X130.599 Y123.348 E53.1762
G1 X130.559 Y123.667 E53.19705
G1 X130.442 Y123.967 E53.21794
G1 X130.218 Y124.267 E53.24222
G1 X130.066 Y124.419 E53.25616
G1 X129.812 Y124.617 E53.27705
G1 X129.75 Y124.644 E53.28144
G1 X129.75 Y128.548 E53.53464
G1 X129.71 Y128.867 E53.55549
G1 X129.593 Y129.167 E53.57638
G1 X129.369 Y129.467 E53.60066
G1 X129.217 Y129.619 E53.6146
G1 X128.963 Y129.817 E53.63549
G1 X128.668 Y129.946 E53.65637
G1 X128.298 Y130 E53.68062
G1 X95.702 Y130 E55.79471
G1 X95.383 Y129.96 E55.81556
G1 X95.083 Y129.843 E55.83644
G1 X94.783 Y129.619 E55.86073
G1 X94.631 Y129.467 E55.87467
G1 X94.433 Y129.213 E55.89556
G1 X94.304 Y128.918 E55.91644
G1 X94.25 Y128.548 E55.94069
G1 X94.25 Y124.649 E56.19357
G1 X94.234 Y124.643 E56.19468
G1 X93.934 Y124.419 E56.21896
G1 X93.782 Y124.267 E56.2329
G1 X93.584 Y124.013 E56.25379
G1 X93.455 Y123.718 E56.27467
G1 X93.401 Y123.348 E56.29892
G1 X93.4 Y120.05 E56.51282
G1 X93.401 Y100.652 E57.77092
G1 X93.441 Y100.333 E57.79177
G1 X93.558 Y100.033 E57.81266
G1 X93.782 Y99.733 E57.83694
G1 X93.934 Y99.581 E57.85088
G1 X94.188 Y99.383 E57.87177
G1 X94.25 Y99.356 E57.87616
G1 X94.25 Y95.452 E58.12936
G1 X94.29 Y95.133 E58.15021
G1 X94.407 Y94.833 E58.1711
G1 X94.631 Y94.533 E58.19538
G0 X94.998 Y94.9
G1 X95.15 Y94.748 E58.20932
G1 X95.352 Y94.603 E58.22545
G1 X95.702 Y94.52 E58.24878
G1 X128.298 Y94.52 E60.36286
G1 X128.544 Y94.56 E60.37903
G1 X128.85 Y94.748 E60.40232
G1 X129.002 Y94.9 E60.41626
G1 X129.147 Y95.102 E60.43239
G1 X129.23 Y95.452 E60.45572
G1 X129.23 Y99.733 E60.73337
G1 X129.393 Y99.76 E60.74409
G1 X129.699 Y99.948 E60.76738
G1 X129.851 Y100.1 E60.78132
G1 X129.996 Y100.302 E60.79745
G1 X130.079 Y100.652 E60.82078
G1 X130.079 Y123.348 E62.29278
G1 X130.039 Y123.594 E62.30895
G1 X129.851 Y123.9 E62.33224
G1 X129.699 Y124.052 E62.34618
G1 X129.497 Y124.197 E62.36231
G1 X129.23 Y124.26 E62.3801
G1 X129.23 Y128.548 E62.65821
G1 X129.19 Y128.794 E62.67437
G1 X129.002 Y129.1 E62.69766
G1 X128.85 Y129.252 E62.71161
G1 X128.648 Y129.397 E62.72773
G1 X128.298 Y129.48 E62.75106
G1 X95.702 Y129.48 E64.86515
G1 X95.456 Y129.44 E64.88131
G1 X95.15 Y129.252 E64.90461
G1 X94.998 Y129.1 E64.91855
G1 X94.853 Y128.898 E64.93468
G1 X94.77 Y128.548 E64.95801
G1 X94.77 Y124.267 E65.23566
G1 X94.607 Y124.24 E65.24638
G1 X94.301 Y124.052 E65.26967
G1 X94.149 Y123.9 E65.28361
G1 X94.004 Y123.698 E65.29974
G1 X93.921 Y123.348 E65.32307
G1 X93.92 Y120.05 E65.53697
G1 X93.921 Y100.652 E66.79507
G1 X93.961 Y100.406 E66.81123
G1 X94.149 Y100.1 E66.83452
G1 X94.301 Y99.948 E66.84847
G1 X94.503 Y99.803 E66.86459
G1 X94.77 Y99.74 E66.88239
G1 X94.77 Y95.452 E67.16049
G1 X94.81 Y95.206 E67.17666
G1 X94.998 Y94.9 E67.19995
G0 X95.366 Y95.268
G1 X95.518 Y95.116 E67.21389
G1 X95.702 Y95.04 E67.2268
G1 X128.298 Y95.04 E69.34089
G1 X128.482 Y95.116 E69.3538
G1 X128.634 Y95.268 E69.36774
G1 X128.71 Y95.452 E69.38066
G1 X128.71 Y100.24 E69.69119
G1 X129.147 Y100.24 E69.71954
G1 X129.331 Y100.316 E69.73245
G1 X129.483 Y100.468 E69.74639
G1 X129.559 Y100.652 E69.7593
G1 X129.559 Y123.348 E71.2313
G1 X129.483 Y123.532 E71.24421
G1 X129.331 Y123.684 E71.25815
G1 X129.147 Y123.76 E71.27107
G1 X128.71 Y123.76 E71.29941
G1 X128.71 Y128.548 E71.60995
G1 X128.634 Y128.732 E71.62286
G1 X128.482 Y128.884 E71.6368
G1 X128.298 Y128.96 E71.64971
G1 X95.702 Y128.96 E73.7638
G1 X95.518 Y128.884 E73.77671
G1 X95.366 Y128.732 E73.79065
G1 X95.29 Y128.548 E73.80356
G1 X95.29 Y123.76 E74.1141
