;FLAVOR:Marlin
;TIME:4423
;Filament used: 1.27427m
;Layer height: 0.1
;MINX:92.65
;MINY:93.1
;MINZ:0.3
;MAXX:131.35
;MAXY:130.9
;MAXZ:5.075
;Generated with Cura_SteamEngine 4.2.1
M104 S200
M105
M109 S200
M82 ;absolute extrusion mode
G21 ;metric values
G90 ;absolute positioning
M82 ;set extruder to absolute mode
M107 ;start with the fan off
G28 X0 Y0 ;move X/Y to min endstops
G28 Z0 ;move Z to min endstops
G1 Z15.0 F120 ;move the platform down 15mm
G92 E0 ;zero the extruded length
G1 F200 E3 ;extrude 3mm of feed stock
G92 E0 ;zero the extruded length again
G1 F120
M117 Printing...
G5
M141 S26
G92 E0
G92 E0
G1 F1800 E-10
;LAYER_COUNT:48
;LAYER:0
M106 S255
G0 F600 X95.292 Y94.394 Z0.3
;TYPE:SKIRT
G1 F1800 E0
G1 F600 X95.444 Y94.242 E0.01394
G1 X95.866 Y93.877 E0.05013
G1 X96.336 Y93.575 E0.08636
G1 X96.844 Y93.344 E0.12256
G1 X97.38 Y93.188 E0.15876
G1 X98.202 Y93.1 E0.21238
G1 X127.298 Y93.1 E2.09947
G1 X127.855 Y93.14 E2.13568
G1 X128.4 Y93.259 E2.17186
G1 X128.923 Y93.455 E2.20809
G1 X129.412 Y93.723 E2.24425
G1 X130.056 Y94.242 E2.2979
G1 X130.208 Y94.394 E2.31184
G1 X130.573 Y94.816 E2.34803
G1 X130.875 Y95.286 E2.38426
G1 X131.106 Y95.794 E2.42045
G1 X131.262 Y96.33 E2.45666
G1 X131.35 Y97.152 E2.51028
G1 X131.35 Y126.848 E4.43628
G1 X131.31 Y127.405 E4.4725
G1 X131.191 Y127.95 E4.50868
G1 X130.995 Y128.473 E4.5449
G1 X130.727 Y128.962 E4.58107
G1 X130.208 Y129.606 E4.63471
G1 X130.056 Y129.758 E4.64865
G1 X129.634 Y130.123 E4.68484
G1 X129.164 Y130.425 E4.72107
G1 X128.656 Y130.656 E4.75727
G1 X128.12 Y130.812 E4.79347
G1 X127.298 Y130.9 E4.84709
G1 X98.202 Y130.9 E6.73418
G1 X97.645 Y130.86 E6.7704
G1 X97.1 Y130.741 E6.80658
G1 X96.577 Y130.545 E6.8428
G1 X96.088 Y130.277 E6.87897
G1 X95.444 Y129.758 E6.93261
G1 X95.292 Y129.606 E6.94655
G1 X94.927 Y129.184 E6.98274
G1 X94.625 Y128.714 E7.01897
G1 X94.394 Y128.206 E7.05517
G1 X94.238 Y127.67 E7.09137
G1 X94.15 Y126.848 E7.14499
G1 X94.15 Y126.324 E7.17897
G1 X93.944 Y126.158 E7.19613
G1 X93.792 Y126.006 E7.21007
G1 X93.427 Y125.584 E7.24626
G1 X93.125 Y125.114 E7.2825
G1 X92.894 Y124.606 E7.31869
G1 X92.738 Y124.07 E7.3549
G1 X92.65 Y123.248 E7.40851
G1 X92.65 Y100.752 E8.86754
G1 X92.69 Y100.195 E8.90376
G1 X92.809 Y99.65 E8.93994
G1 X93.005 Y99.127 E8.97616
G1 X93.273 Y98.638 E9.01233
G1 X93.792 Y97.994 E9.06597
G1 X93.944 Y97.842 E9.07992
G1 X94.15 Y97.664 E9.09757
G1 X94.15 Y97.152 E9.13078
G1 X94.19 Y96.595 E9.167
G1 X94.309 Y96.05 E9.20318
G1 X94.505 Y95.527 E9.2394
G1 X94.773 Y95.038 E9.27557
G1 X95.292 Y94.394 E9.32921
G0 X95.66 Y94.762
G1 X95.812 Y94.61 E9.34315
G1 X96.207 Y94.272 E9.37687
G1 X96.648 Y93.998 E9.41054
G1 X97.127 Y93.796 E9.44426
G1 X97.631 Y93.669 E9.47797
G1 X98.202 Y93.62 E9.51514
G1 X127.298 Y93.62 E11.40223
G1 X127.816 Y93.66 E11.43592
G1 X128.322 Y93.779 E11.46964
G1 X128.804 Y93.974 E11.50336
G1 X129.25 Y94.24 E11.53704
G1 X129.688 Y94.61 E11.57423
G1 X129.84 Y94.762 E11.58817
G1 X130.178 Y95.157 E11.62188
G1 X130.452 Y95.598 E11.65556
G1 X130.654 Y96.077 E11.68927
G1 X130.781 Y96.581 E11.72298
G1 X130.83 Y97.152 E11.76015
G1 X130.83 Y126.848 E13.68616
G1 X130.79 Y127.366 E13.71985
G1 X130.671 Y127.872 E13.75356
G1 X130.476 Y128.354 E13.78729
G1 X130.21 Y128.8 E13.82097
G1 X129.84 Y129.238 E13.85815
G1 X129.688 Y129.39 E13.8721
G1 X129.293 Y129.728 E13.90581
G1 X128.852 Y130.002 E13.93949
G1 X128.373 Y130.204 E13.9732
G1 X127.869 Y130.331 E14.00691
G1 X127.298 Y130.38 E14.04408
G1 X98.202 Y130.38 E15.93117
G1 X97.684 Y130.34 E15.96486
G1 X97.178 Y130.221 E15.99858
G1 X96.696 Y130.026 E16.0323
G1 X96.25 Y129.76 E16.06598
G1 X95.812 Y129.39 E16.10317
G1 X95.66 Y129.238 E16.11711
G1 X95.322 Y128.843 E16.15083
G1 X95.048 Y128.402 E16.1845
G1 X94.846 Y127.923 E16.21822
G1 X94.719 Y127.419 E16.25193
G1 X94.67 Y126.848 E16.2891
G1 X94.67 Y126.092 E16.33813
G1 X94.312 Y125.79 E16.3685
G1 X94.16 Y125.638 E16.38245
G1 X93.822 Y125.243 E16.41616
G1 X93.548 Y124.802 E16.44984
G1 X93.346 Y124.323 E16.48355
G1 X93.219 Y123.819 E16.51726
G1 X93.17 Y123.248 E16.55443
G1 X93.17 Y100.752 E18.01346
G1 X93.21 Y100.234 E18.04716
G1 X93.329 Y99.728 E18.08087
G1 X93.524 Y99.246 E18.11459
G1 X93.79 Y98.8 E18.14827
G1 X94.16 Y98.362 E18.18546
G1 X94.312 Y98.21 E18.1994
G1 X94.67 Y97.904 E18.22995
G1 X94.67 Y97.152 E18.27872
G1 X94.71 Y96.634 E18.31242
G1 X94.829 Y96.128 E18.34613
G1 X95.024 Y95.646 E18.37985
G1 X95.29 Y95.2 E18.41353
G1 X95.66 Y94.762 E18.45072
G0 X96.028 Y95.13
G1 X96.18 Y94.978 E18.46466
G1 X96.545 Y94.669 E18.49568
G1 X96.956 Y94.426 E18.52664
G1 X97.402 Y94.254 E18.55765
G1 X97.87 Y94.159 E18.58862
G1 X98.202 Y94.14 E18.61019
G1 X127.298 Y94.14 E20.49727
G1 X127.774 Y94.18 E20.52826
G1 X128.237 Y94.299 E20.55926
G1 X128.674 Y94.493 E20.59027
G1 X129.072 Y94.757 E20.62125
G1 X129.32 Y94.978 E20.64279
G1 X129.472 Y95.13 E20.65673
G1 X129.781 Y95.495 E20.68775
G1 X130.024 Y95.906 E20.71872
G1 X130.196 Y96.352 E20.74972
G1 X130.291 Y96.82 E20.78069
G1 X130.31 Y97.152 E20.80226
G1 X130.31 Y126.848 E22.72826
G1 X130.27 Y127.324 E22.75924
G1 X130.151 Y127.787 E22.79025
G1 X129.957 Y128.224 E22.82126
G1 X129.693 Y128.622 E22.85223
G1 X129.472 Y128.87 E22.87378
G1 X129.32 Y129.022 E22.88772
G1 X128.955 Y129.331 E22.91873
G1 X128.544 Y129.574 E22.9497
G1 X128.098 Y129.746 E22.9807
G1 X127.63 Y129.841 E23.01168
G1 X127.298 Y129.86 E23.03324
G1 X98.202 Y129.86 E24.92033
G1 X97.726 Y129.82 E24.95131
G1 X97.263 Y129.701 E24.98232
G1 X96.826 Y129.507 E25.01333
G1 X96.428 Y129.243 E25.0443
G1 X96.18 Y129.022 E25.06585
G1 X96.028 Y128.87 E25.07979
G1 X95.719 Y128.505 E25.11081
G1 X95.476 Y128.094 E25.14177
G1 X95.304 Y127.648 E25.17278
G1 X95.209 Y127.18 E25.20375
G1 X95.19 Y126.848 E25.22532
G1 X95.19 Y125.817 E25.29218
G1 X94.928 Y125.643 E25.31258
G1 X94.68 Y125.422 E25.33413
G1 X94.528 Y125.27 E25.34807
G1 X94.219 Y124.905 E25.37908
G1 X93.976 Y124.494 E25.41005
G1 X93.804 Y124.048 E25.44105
G1 X93.709 Y123.58 E25.47203
G1 X93.69 Y123.248 E25.49359
G1 X93.69 Y100.752 E26.95262
G1 X93.73 Y100.276 E26.9836
G1 X93.849 Y99.813 E27.01461
G1 X94.043 Y99.376 E27.04562
G1 X94.307 Y98.978 E27.0766
G1 X94.528 Y98.73 E27.09814
G1 X94.68 Y98.578 E27.11208
G1 X95.045 Y98.269 E27.1431
G1 X95.19 Y98.183 E27.15403
G1 X95.19 Y97.152 E27.2209
G1 X95.23 Y96.676 E27.25188
G1 X95.349 Y96.213 E27.28289
G1 X95.543 Y95.776 E27.3139
G1 X95.807 Y95.378 E27.34487
G1 X96.028 Y95.13 E27.36642
G0 X96.395 Y95.497
G1 X96.547 Y95.345 E27.38036
G1 X96.88 Y95.069 E27.40841
G1 X97.258 Y94.859 E27.43645
G1 X97.667 Y94.722 E27.46443
G1 X98.202 Y94.66 E27.49936
G1 X127.298 Y94.66 E29.38645
G1 X127.728 Y94.7 E29.41446
G1 X128.144 Y94.818 E29.4425
G1 X128.531 Y95.011 E29.47055
G1 X128.953 Y95.345 E29.50545
G1 X129.105 Y95.497 E29.5194
G1 X129.381 Y95.83 E29.54745
G1 X129.591 Y96.208 E29.57549
G1 X129.728 Y96.617 E29.60347
G1 X129.79 Y97.152 E29.6384
G1 X129.79 Y126.848 E31.5644
G1 X129.75 Y127.278 E31.59241
G1 X129.632 Y127.694 E31.62045
G1 X129.439 Y128.081 E31.6485
G1 X129.105 Y128.503 E31.68341
G1 X128.953 Y128.655 E31.69735
G1 X128.62 Y128.931 E31.7254
G1 X128.242 Y129.141 E31.75345
G1 X127.833 Y129.278 E31.78142
G1 X127.298 Y129.34 E31.81635
G1 X98.202 Y129.34 E33.70344
G1 X97.772 Y129.3 E33.73145
G1 X97.356 Y129.182 E33.75949
G1 X96.969 Y128.989 E33.78754
G1 X96.547 Y128.655 E33.82245
G1 X96.395 Y128.503 E33.83639
G1 X96.119 Y128.17 E33.86444
G1 X95.909 Y127.792 E33.89248
G1 X95.772 Y127.383 E33.92046
G1 X95.71 Y126.848 E33.95539
G1 X95.71 Y125.509 E34.04223
G1 X95.469 Y125.389 E34.0597
G1 X95.047 Y125.055 E34.0946
G1 X94.895 Y124.903 E34.10854
G1 X94.619 Y124.57 E34.13659
G1 X94.409 Y124.192 E34.16464
G1 X94.272 Y123.783 E34.19261
G1 X94.21 Y123.248 E34.22754
G1 X94.21 Y100.752 E35.68657
G1 X94.25 Y100.322 E35.71458
G1 X94.368 Y99.906 E35.74263
G1 X94.561 Y99.519 E35.77068
G1 X94.895 Y99.097 E35.80558
G1 X95.047 Y98.945 E35.81952
G1 X95.38 Y98.669 E35.84757
G1 X95.71 Y98.486 E35.87205
G1 X95.71 Y97.152 E35.95857
G1 X95.75 Y96.722 E35.98658
G1 X95.868 Y96.306 E36.01462
G1 X96.061 Y95.919 E36.04267
G1 X96.395 Y95.497 E36.07757
G0 X96.763 Y95.865
G1 X96.915 Y95.713 E36.09152
G1 X97.211 Y95.473 E36.11623
G1 X97.551 Y95.3 E36.14097
G1 X97.919 Y95.202 E36.16567
G1 X98.202 Y95.18 E36.18408
G1 X127.298 Y95.18 E38.07117
G1 X127.677 Y95.22 E38.09589
G1 X128.039 Y95.338 E38.12058
G1 X128.369 Y95.529 E38.14531
G1 X128.585 Y95.713 E38.16371
G1 X128.737 Y95.865 E38.17766
G1 X128.977 Y96.161 E38.20237
G1 X129.15 Y96.501 E38.22711
G1 X129.248 Y96.869 E38.25181
G1 X129.27 Y97.152 E38.27022
G1 X129.27 Y126.848 E40.19622
G1 X129.23 Y127.227 E40.22094
G1 X129.112 Y127.589 E40.24563
G1 X128.921 Y127.919 E40.27036
G1 X128.737 Y128.135 E40.28877
G1 X128.585 Y128.287 E40.30271
G1 X128.289 Y128.527 E40.32742
G1 X127.949 Y128.7 E40.35217
G1 X127.581 Y128.798 E40.37687
G1 X127.298 Y128.82 E40.39528
G1 X98.202 Y128.82 E42.28236
G1 X97.823 Y128.78 E42.30708
G1 X97.461 Y128.662 E42.33177
G1 X97.131 Y128.471 E42.3565
G1 X96.915 Y128.287 E42.37491
G1 X96.763 Y128.135 E42.38885
G1 X96.523 Y127.839 E42.41356
G1 X96.35 Y127.499 E42.4383
G1 X96.252 Y127.131 E42.463
G1 X96.23 Y126.848 E42.48141
G1 X96.23 Y125.15 E42.59154
G1 X95.961 Y125.062 E42.6099
G1 X95.631 Y124.871 E42.63463
G1 X95.415 Y124.687 E42.65303
G1 X95.263 Y124.535 E42.66697
G1 X95.023 Y124.239 E42.69169
G1 X94.85 Y123.899 E42.71643
G1 X94.752 Y123.531 E42.74113
G1 X94.73 Y123.248 E42.75954
G1 X94.73 Y100.752 E44.21857
G1 X94.77 Y100.373 E44.24329
G1 X94.888 Y100.011 E44.26798
G1 X95.079 Y99.681 E44.29271
G1 X95.263 Y99.465 E44.31111
G1 X95.415 Y99.313 E44.32505
G1 X95.711 Y99.073 E44.34977
G1 X96.051 Y98.9 E44.37451
G1 X96.23 Y98.852 E44.38653
G1 X96.23 Y97.152 E44.49679
G1 X96.27 Y96.773 E44.52151
G1 X96.388 Y96.411 E44.5462
G1 X96.579 Y96.081 E44.57093
G1 X96.763 Y95.865 E44.58933
G0 X97.131 Y96.233
G1 X97.283 Y96.081 E44.60327
G1 X97.537 Y95.883 E44.62416
G1 X97.832 Y95.754 E44.64504
G1 X98.202 Y95.7 E44.66929
G1 X127.298 Y95.7 E46.55638
G1 X127.617 Y95.74 E46.57723
G1 X127.917 Y95.857 E46.59812
G1 X128.217 Y96.081 E46.6224
G1 X128.369 Y96.233 E46.63634
G1 X128.567 Y96.487 E46.65723
G1 X128.696 Y96.782 E46.67811
G1 X128.75 Y97.152 E46.70236
G1 X128.75 Y126.848 E48.62836
G1 X128.71 Y127.167 E48.64922
G1 X128.593 Y127.467 E48.6701
G1 X128.369 Y127.767 E48.69438
G1 X128.217 Y127.919 E48.70833
G1 X127.963 Y128.117 E48.72921
G1 X127.668 Y128.246 E48.7501
G1 X127.298 Y128.3 E48.77435
G1 X98.202 Y128.3 E50.66143
G1 X97.883 Y128.26 E50.68228
G1 X97.583 Y128.143 E50.70317
G1 X97.283 Y127.919 E50.72745
G1 X97.131 Y127.767 E50.74139
G1 X96.933 Y127.513 E50.76228
G1 X96.804 Y127.218 E50.78316
G1 X96.75 Y126.848 E50.80742
G1 X96.75 Y124.7 E50.94673
G1 X96.702 Y124.7 E50.94984
G1 X96.383 Y124.66 E50.97069
G1 X96.083 Y124.543 E50.99158
G1 X95.783 Y124.319 E51.01586
G1 X95.631 Y124.167 E51.0298
G1 X95.433 Y123.913 E51.05069
G1 X95.304 Y123.618 E51.07157
G1 X95.25 Y123.248 E51.09582
G1 X95.25 Y100.752 E52.55485
G1 X95.29 Y100.433 E52.5757
G1 X95.407 Y100.133 E52.59659
G1 X95.631 Y99.833 E52.62087
G1 X95.783 Y99.681 E52.63481
G1 X96.037 Y99.483 E52.6557
G1 X96.332 Y99.354 E52.67658
G1 X96.702 Y99.3 E52.70083
G1 X96.75 Y99.3 E52.70395
G1 X96.75 Y97.152 E52.84326
G1 X96.79 Y96.833 E52.86411
G1 X96.907 Y96.533 E52.885
G1 X97.131 Y96.233 E52.90928
G0 X97.498 Y96.6
G1 X97.65 Y96.448 E52.92322
G1 X97.852 Y96.303 E52.93935
G1 X98.202 Y96.22 E52.96268
G1 X127.298 Y96.22 E54.84976
G1 X127.544 Y96.26 E54.86593
G1 X127.85 Y96.448 E54.88922
G1 X128.002 Y96.6 E54.90316
G1 X128.147 Y96.802 E54.91929
G1 X128.23 Y97.152 E54.94262
G1 X128.23 Y126.848 E56.86862
G1 X128.19 Y127.094 E56.88479
G1 X128.002 Y127.4 E56.90808
G1 X127.85 Y127.552 E56.92202
G1 X127.648 Y127.697 E56.93815
G1 X127.298 Y127.78 E56.96148
G1 X98.202 Y127.78 E58.84856
G1 X97.956 Y127.74 E58.86473
G1 X97.65 Y127.552 E58.88802
G1 X97.498 Y127.4 E58.90196
G1 X97.353 Y127.198 E58.91809
G1 X97.27 Y126.848 E58.94142
G1 X97.27 Y124.18 E59.11446
G1 X96.702 Y124.18 E59.1513
G1 X96.456 Y124.14 E59.16746
G1 X96.15 Y123.952 E59.19075
G1 X95.998 Y123.8 E59.2047
G1 X95.853 Y123.598 E59.22082
G1 X95.77 Y123.248 E59.24415
G1 X95.77 Y100.752 E60.70318
G1 X95.81 Y100.506 E60.71935
G1 X95.998 Y100.2 E60.74264
G1 X96.15 Y100.048 E60.75658
G1 X96.352 Y99.903 E60.77271
G1 X96.702 Y99.82 E60.79604
G1 X97.27 Y99.82 E60.83288
G1 X97.27 Y97.152 E61.00592
G1 X97.31 Y96.906 E61.02208
G1 X97.498 Y96.6 E61.04537
G0 X97.866 Y96.968
G1 X98.018 Y96.816 E61.05931
G1 X98.202 Y96.74 E61.07223
G1 X127.298 Y96.74 E62.95931
G1 X127.482 Y96.816 E62.97222
G1 X127.634 Y96.968 E62.98617
G1 X127.71 Y97.152 E62.99908
G1 X127.71 Y126.848 E64.92508
G1 X127.634 Y127.032 E64.93799
G1 X127.482 Y127.184 E64.95193
G1 X127.298 Y127.26 E64.96484
G1 X98.202 Y127.26 E66.85193
G1 X98.018 Y127.184 E66.86484
G1 X97.866 Y127.032 E66.87878
G1 X97.79 Y126.848 E66.8917
G1 X97.79 Y123.66 E67.09846
G1 X96.702 Y123.66 E67.16903
G1 X96.518 Y123.584 E67.18194
G1 X96.366 Y123.432 E67.19588
G1 X96.29 Y123.248 E67.20879
G1 X96.29 Y100.752 E68.66782
G1 X96.366 Y100.568 E68.68073
G1 X96.518 Y100.416 E68.69467
G1 X96.702 Y100.34 E68.70759
G1 X97.79 Y100.34 E68.77815
G1 X97.79 Y97.152 E68.98491
G1 X97.866 Y96.968 E68.99783
G1 F1800 E58.99783
G1 F1500 Z0.375
G0 F600 X111.38 Y100.888 Z0.375
G1 F1500 Z0.3
G1 F1800 E68.99783
G1 F600 X111.506 Y100.634 E69.01622
G1 X111.697 Y100.376 E69.03704
G1 X111.938 Y100.153 E69.05833
G1 X112.174 Y100.006 E69.07636
G1 X112.481 Y99.884 E69.09779
G1 X112.781 Y99.825 E69.11762
G1 X113.093 Y99.822 E69.13786
G1 X113.393 Y99.875 E69.15761
G1 X113.689 Y99.987 E69.17814
G1 X113.952 Y100.146 E69.19807
G1 X114.185 Y100.355 E69.21837
G1 X114.37 Y100.596 E69.23808
G1 X114.515 Y100.878 E69.25864
G1 X114.602 Y101.174 E69.27865
G1 X114.634 Y101.491 E69.29932
G1 X114.609 Y101.788 E69.31865
G1 X114.526 Y102.089 E69.3389
G1 X114.388 Y102.373 E69.35938
G1 X114.201 Y102.626 E69.37978
G1 X113.962 Y102.847 E69.40089
G1 X113.726 Y102.994 E69.41893
G1 X113.419 Y103.116 E69.44035
G1 X113.119 Y103.175 E69.46018
G1 X112.807 Y103.178 E69.48042
G1 X112.507 Y103.125 E69.50018
G1 X112.211 Y103.013 E69.5207
G1 X111.948 Y102.854 E69.54064
G1 X111.715 Y102.645 E69.56094
G1 X111.53 Y102.404 E69.58064
G1 X111.385 Y102.122 E69.60121
G1 X111.299 Y101.827 E69.62114
G1 X111.266 Y101.512 E69.64168
G1 X111.294 Y101.187 E69.66284
G1 X111.38 Y100.888 E69.68301
G0 X111.865 Y101.081
G1 X111.952 Y100.904 E69.69581
G1 X112.086 Y100.724 E69.71036
G1 X112.253 Y100.569 E69.72514
G1 X112.409 Y100.472 E69.73705
G1 X112.628 Y100.385 E69.75233
G1 X112.833 Y100.344 E69.76589
G1 X113.051 Y100.343 E69.78003
G1 X113.252 Y100.378 E69.79327
G1 X113.459 Y100.456 E69.80761
G1 X113.644 Y100.568 E69.82164
G1 X113.802 Y100.71 E69.83542
G1 X113.928 Y100.874 E69.84883
G1 X114.03 Y101.072 E69.86328
G1 X114.089 Y101.275 E69.87699
G1 X114.112 Y101.495 E69.89133
G1 X114.095 Y101.697 E69.90448
G1 X114.037 Y101.907 E69.91861
G1 X113.944 Y102.1 E69.9325
G1 X113.811 Y102.279 E69.94697
G1 X113.647 Y102.431 E69.96147
G1 X113.491 Y102.528 E69.97338
G1 X113.272 Y102.615 E69.98867
G1 X113.067 Y102.656 E70.00223
G1 X112.849 Y102.657 E70.01637
G1 X112.648 Y102.622 E70.0296
G1 X112.441 Y102.544 E70.04395
G1 X112.256 Y102.432 E70.05797
G1 X112.098 Y102.29 E70.07175
G1 X111.972 Y102.126 E70.08516
G1 X111.87 Y101.928 E70.09961
G1 X111.811 Y101.725 E70.11332
G1 X111.788 Y101.509 E70.12741
G1 X111.808 Y101.279 E70.14238
G1 X111.865 Y101.081 E70.15574
G0 X112.353 Y101.267
G1 X112.397 Y101.178 E70.16218
G1 X112.476 Y101.071 E70.17081
G1 X112.571 Y100.984 E70.17916
